icons/plexis/48/gromit.svg

<svg viewBox="0 0 48 48" xmlns="http://www.w3.org/2000/svg" xmlns:xlink="http://www.w3.org/1999/xlink">
  <linearGradient id="a" gradientTransform="matrix(0 -1 1 0 -.0000015 47.999998)" gradientUnits="userSpaceOnUse" x1="1" x2="47">
    <stop offset="0" stop-color="#9dca3c"/>
    <stop offset="1" stop-color="#a5ce4c"/>
  </linearGradient>
  <path d="m47 24c0 22.703-.297 23-23 23-22.703 0-23-.297-23-23 0-22.703.297-23 23-23 22.703 0 23 .297 23 23z" fill="url(#a)"/>
  <path d="m29.941 12.994c-1.383.063-3.132.453-5.176 1.736-2.038 1.272-4.371 3.385-6.05 5.488-1.688 2.102-2.709 4.182-3.232 6.373-.516 2.183-.56 4.451-.125 6.201.427 1.731 1.353 2.941 2.631 3.57 1.27.65 2.851.726 4.395.492 1.553-.234 3.077-.783 4.305-1.461 1.243-.682 2.191-1.521 2.879-2.754.005-.009.009-.019.014-.027-.012.15-.038.328-.041.457-.001.346.047.632.18.865.132.233.343.398.561.471.435.145.848.019 1.154-.119h.008c.362-.164.568-.501.699-.879.131-.378.221-.84.4-1.459h.008c.372-1.297.68-3.077.582-4.492-.111-1.497-1.193-2.707-2.533-2.754-1.317-.046-2.972.833-4.52 1.516-1.55.683-2.976 1.198-3.744 1.979l-.008.008c-.377.392-.547.849-.518 1.273.029.422.28.8.67.969.393.16.815.096 1.246-.021.431-.117.88-.306 1.322-.506h.008c.88-.401 1.741-.862 2.531-1.23.328-.153.637-.284.936-.406-.2.34-.366.751-.555 1.188-.255.592-.537 1.228-.885 1.738-.699 1.021-1.716 1.661-3.045 2.152h-.008c-1.333.505-2.918.798-3.896.422-.99-.377-1.604-1.472-1.854-2.65-.249-1.177-.121-2.381.297-3.779.417-1.397 1.125-2.959 2.229-4.602 1.103-1.646 2.605-3.37 4.291-4.727l-.008-.016c1.678-1.34 3.59-2.323 4.963-2.387 1.406-.067 2.416.735 3.301 1.01h.008c.452.134.876.075 1.154-.18.278-.255.349-.639.27-.988h.008c-.151-.705-.778-1.303-1.6-1.766l-.006-.008c-.818-.455-1.864-.738-3.246-.697z" opacity=".1" transform=""/>
  <g fill="#d64936" stroke="#2d2d2d" stroke-width=".213" transform="translate(-.00010085)">
    <path d="m6.105 8.215c-.148-.063-.187-.278-.008-.464.183-.186.584-.342 1.024-.536.44-.194.914-.43 1.229-.419.315.011.585.302.613.678.026.377-.06.875-.162 1.231-.103.356-.115.53-.254.593-.14.063-.396.093-.386-.244.009-.334.149-1.01.194-1.301.044-.291-.148-.312-.302-.269-.155.043-.368.127-.595.233-.227.106-.47.237-.714.348-.246.111-.496.206-.641.147" transform="scale(3.543307)"/>
    <path d="m6.734 4.722c-.486.391-.916.885-1.233 1.358-.317.472-.521.922-.642 1.327-.121.405-.161.765-.086 1.119.075.354.262.701.59.826.325.125.787.028 1.175-.119.387-.143.699-.337.912-.648.212-.311.325-.74.465-.912.141-.172.313-.086.336.176.025.26-.096.699-.281 1.029-.184.33-.432.55-.771.736-.335.185-.756.336-1.18.4-.422.064-.849.04-1.178-.129-.331-.163-.569-.472-.684-.938-.117-.471-.107-1.098.035-1.699.144-.603.423-1.174.891-1.757.465-.583 1.12-1.176 1.681-1.526.562-.353 1.033-.456 1.408-.473.374-.011.647.065.861.184.215.121.368.284.399.429.032.141-.06.267-.269.205-.206-.064-.53-.31-.969-.289-.432.02-.98.31-1.465.698" fill-rule="evenodd" transform="scale(3.543307)"/>
    <path d="m6.734 4.722c-.486.391-.992.885-1.311 1.358-.316.472-.508.884-.628 1.289-.118.408-.129.842-.054 1.196.075.354.248.729.571.852.325.125.869.014 1.253-.132.387-.142.674-.389.886-.7.212-.311.206-.712.346-.884.142-.172.431-.111.455.151.025.259-.096.699-.281 1.029-.185.33-.432.55-.771.736-.335.183-.756.334-1.181.398-.421.065-.767.065-1.099-.098-.332-.166-.659-.591-.774-1.056-.117-.471-.132-.957.01-1.558.142-.603.463-1.227.927-1.808.466-.583 1.12-1.176 1.682-1.528.562-.351 1.033-.454 1.407-.471.375-.014.647.063.862.184.215.121.417.293.445.437.031.142-.133.356-.343.294-.208-.061-.496-.369-.934-.348-.433.021-.99.269-1.476.659" transform="scale(3.543307)"/>
  </g>
</svg>

<svg xmlns="http://www.w3.org/2000/svg" viewBox="0 0 48 48">
 <defs>
  <linearGradient id="linearGradient3764" x1="1" x2="47" gradientUnits="userSpaceOnUse" gradientTransform="matrix(0,-1,1,0,-1.5e-6,47.999998)">
   <stop style="stop-color:#9dca3c;stop-opacity:1"/>
   <stop offset="1" style="stop-color:#a5ce4c;stop-opacity:1"/>
  </linearGradient>
 </defs>
 <g>
  
  
  
 </g>
 <g>
  <path d="m 47,24 C 47,46.703 46.703,47 24,47 1.297,47 1,46.703 1,24 1,1.297 1.297,1 24,1 46.703,1 47,1.297 47,24 z" style="fill:url(#linearGradient3764);fill-opacity:1"/>
 </g>
 <g style="fill:#000">
  <g>
   <g transform="translate(1,1)">
    <g style="opacity:0.1">
     <!-- color: #a5ce4c -->
     <g>
      <path d="m 29.941 12.994 c -1.383 0.063 -3.132 0.453 -5.176 1.736 c -2.038 1.272 -4.371 3.385 -6.05 5.488 c -1.688 2.102 -2.709 4.182 -3.232 6.373 c -0.516 2.183 -0.56 4.451 -0.125 6.201 c 0.427 1.731 1.353 2.941 2.631 3.57 c 1.27 0.65 2.851 0.726 4.395 0.492 c 1.553 -0.234 3.077 -0.783 4.305 -1.461 c 1.243 -0.682 2.191 -1.521 2.879 -2.754 c 0.005 -0.009 0.009 -0.019 0.014 -0.027 c -0.012 0.15 -0.038 0.328 -0.041 0.457 c -0.001 0.346 0.047 0.632 0.18 0.865 c 0.132 0.233 0.343 0.398 0.561 0.471 c 0.435 0.145 0.848 0.019 1.154 -0.119 l 0.008 0 c 0.362 -0.164 0.568 -0.501 0.699 -0.879 c 0.131 -0.378 0.221 -0.84 0.4 -1.459 l 0.008 0 c 0.372 -1.297 0.68 -3.077 0.582 -4.492 c -0.111 -1.497 -1.193 -2.707 -2.533 -2.754 c -1.317 -0.046 -2.972 0.833 -4.52 1.516 c -1.55 0.683 -2.976 1.198 -3.744 1.979 l -0.008 0.008 c -0.377 0.392 -0.547 0.849 -0.518 1.273 c 0.029 0.422 0.28 0.8 0.67 0.969 c 0.393 0.16 0.815 0.096 1.246 -0.021 c 0.431 -0.117 0.88 -0.306 1.322 -0.506 l 0.008 0 c 0.88 -0.401 1.741 -0.862 2.531 -1.23 c 0.328 -0.153 0.637 -0.284 0.936 -0.406 c -0.2 0.34 -0.366 0.751 -0.555 1.188 c -0.255 0.592 -0.537 1.228 -0.885 1.738 c -0.699 1.021 -1.716 1.661 -3.045 2.152 l -0.008 0 c -1.333 0.505 -2.918 0.798 -3.896 0.422 c -0.99 -0.377 -1.604 -1.472 -1.854 -2.65 c -0.249 -1.177 -0.121 -2.381 0.297 -3.779 c 0.417 -1.397 1.125 -2.959 2.229 -4.602 c 1.103 -1.646 2.605 -3.37 4.291 -4.727 l -0.008 -0.016 c 1.678 -1.34 3.59 -2.323 4.963 -2.387 c 1.406 -0.067 2.416 0.735 3.301 1.01 l 0.008 0 c 0.452 0.134 0.876 0.075 1.154 -0.18 c 0.278 -0.255 0.349 -0.639 0.27 -0.988 l 0.008 0 c -0.151 -0.705 -0.778 -1.303 -1.6 -1.766 l -0.006 -0.008 c -0.818 -0.455 -1.864 -0.738 -3.246 -0.697 z" transform="translate(-1,-1)" mix-blend-mode="normal" isolation="auto" white-space="normal" solid-opacity="1" solid-color="#000000" style="visibility:visible;shape-rendering:auto;color-interpolation-filters:linearRGB;opacity:1;image-rendering:auto;fill-opacity:1;stroke:none;display:inline;color:#000;fill-rule:nonzero;color-rendering:auto;color-interpolation:sRGB"/>
     </g>
    </g>
   </g>
  </g>
 </g>
 <g transform="translate(-1.0084947e-4,0)">
  <g>
   <!-- color: #a5ce4c -->
   <g>
    <path d="M 6.105,8.215 C 5.957,8.152 5.918,7.937 6.097,7.751 6.28,7.565 6.681,7.409 7.121,7.215 7.561,7.021 8.035,6.785 8.35,6.796 8.665,6.807 8.935,7.098 8.963,7.474 8.989,7.851 8.903,8.349 8.801,8.705 8.698,9.061 8.686,9.235 8.547,9.298 8.407,9.361 8.151,9.391 8.161,9.054 8.17,8.72 8.31,8.044 8.355,7.753 8.399,7.462 8.207,7.441 8.053,7.484 7.898,7.527 7.685,7.611 7.458,7.717 7.231,7.823 6.988,7.954 6.744,8.065 6.498,8.176 6.248,8.271 6.103,8.212" transform="scale(3.543307,3.543307)" style="stroke-opacity:1;fill:#d64936;stroke-miterlimit:4;fill-opacity:1;stroke:#2d2d2d;fill-rule:nonzero;stroke-linecap:butt;stroke-linejoin:miter;stroke-width:0.213"/>
    <path d="M 6.734,4.722 C 6.248,5.113 5.818,5.607 5.501,6.08 5.184,6.552 4.98,7.002 4.859,7.407 4.738,7.812 4.698,8.172 4.773,8.526 4.848,8.88 5.035,9.227 5.363,9.352 5.688,9.477 6.15,9.38 6.538,9.233 6.925,9.09 7.237,8.896 7.45,8.585 7.662,8.274 7.775,7.845 7.915,7.673 8.056,7.501 8.228,7.587 8.251,7.849 8.276,8.109 8.155,8.548 7.97,8.878 7.786,9.208 7.538,9.428 7.199,9.614 6.864,9.799 6.443,9.95 6.019,10.014 5.597,10.078 5.17,10.054 4.841,9.885 4.51,9.722 4.272,9.413 4.157,8.947 4.04,8.476 4.05,7.849 4.192,7.248 4.336,6.645 4.615,6.074 5.083,5.491 5.548,4.908 6.203,4.315 6.764,3.965 7.326,3.612 7.797,3.509 8.172,3.492 8.546,3.481 8.819,3.557 9.033,3.676 9.248,3.797 9.401,3.96 9.432,4.105 9.464,4.246 9.372,4.372 9.163,4.31 8.957,4.246 8.633,4 8.194,4.021 7.762,4.041 7.214,4.331 6.729,4.719" transform="scale(3.543307,3.543307)" style="stroke-opacity:1;fill:#d64936;stroke-miterlimit:4;fill-opacity:1;stroke:#2d2d2d;fill-rule:evenodd;stroke-linecap:butt;stroke-linejoin:miter;stroke-width:0.213"/>
    <path d="M 6.734,4.722 C 6.248,5.113 5.742,5.607 5.423,6.08 5.107,6.552 4.915,6.964 4.795,7.369 4.677,7.777 4.666,8.211 4.741,8.565 4.816,8.919 4.989,9.294 5.312,9.417 5.637,9.542 6.181,9.431 6.565,9.285 6.952,9.143 7.239,8.896 7.451,8.585 7.663,8.274 7.657,7.873 7.797,7.701 7.939,7.529 8.228,7.59 8.252,7.852 8.277,8.111 8.156,8.551 7.971,8.881 7.786,9.211 7.539,9.431 7.2,9.617 6.865,9.8 6.444,9.951 6.019,10.015 5.598,10.08 5.252,10.08 4.92,9.917 4.588,9.751 4.261,9.326 4.146,8.861 4.029,8.39 4.014,7.904 4.156,7.303 4.298,6.7 4.619,6.076 5.083,5.495 5.549,4.912 6.203,4.319 6.765,3.967 7.327,3.616 7.798,3.513 8.172,3.496 8.547,3.482 8.819,3.559 9.034,3.68 9.249,3.801 9.451,3.973 9.479,4.117 9.51,4.259 9.346,4.473 9.136,4.411 8.928,4.35 8.64,4.042 8.202,4.063 7.769,4.084 7.212,4.332 6.726,4.722" transform="scale(3.543307,3.543307)" style="stroke-opacity:1;fill:#d64936;stroke-miterlimit:4;fill-opacity:1;stroke:#2d2d2d;fill-rule:nonzero;stroke-linecap:butt;stroke-linejoin:miter;stroke-width:0.213"/>
   </g>
  </g>
 </g>
 <g>
  
 </g>
</svg>
